spyder/images/light/file_type_tex.svg

<svg width="32" height="32" viewBox="0 0 32 32" fill="none" xmlns="http://www.w3.org/2000/svg">
<path d="M11.333 13.1219C11.205 11.5599 11.092 10.3659 9.046 10.3659H7.91V18.7659H10.055V19.3769L6.972 19.3479L3.89 19.3769V18.7659H6.034V10.3659H4.884C2.838 10.3659 2.725 11.5739 2.597 13.1219H2L2.284 9.75488H11.646L11.93 13.1219H11.33H11.333Z" fill="#37414F"/>
<path d="M19.289 22.53H10.41V21.92H11.916V13.467H10.41V12.856H19.047L19.459 16.223H18.859C18.646 14.39 18.177 13.467 16.004 13.467H13.791V17.2H14.629C15.993 17.2 16.134 16.6 16.134 15.538H16.734V19.473H16.134C16.134 18.393 15.992 17.811 14.629 17.811H13.791V21.917H16.007C18.479 21.917 19.007 20.809 19.307 18.692H19.907L19.289 22.53Z" fill="#37414F"/>
<path d="M27.727 19.1862C27.187 19.1862 25.767 19.1862 25.312 19.2152V18.6002H26.491L23.934 15.0482L21.405 18.4292C21.8248 18.5551 22.262 18.6128 22.7 18.6002V19.2112C22.345 19.1822 21.124 19.1822 20.683 19.1822C20.283 19.1822 19.135 19.1822 18.808 19.2112V18.6002H19.191C19.4662 18.6011 19.7413 18.5867 20.015 18.5572C20.515 18.5142 20.555 18.4722 20.682 18.3012L23.536 14.5002L20.383 10.0822H19V9.47021C19.384 9.49821 20.79 9.49821 21.273 9.49821C21.855 9.49821 23.191 9.49821 23.702 9.47021V10.0812H22.528L24.645 13.0362L26.719 10.2522C26.2998 10.1269 25.8633 10.0695 25.426 10.0822V9.47021C25.782 9.49821 27.017 9.49821 27.458 9.49821C27.858 9.49821 28.992 9.49821 29.319 9.47021V10.0812H28.95C28.67 10.0732 28.3897 10.0876 28.112 10.1242C27.643 10.1672 27.586 10.1952 27.445 10.3802L25.045 13.5902L28.636 18.6002H30V19.2112C29.645 19.1862 28.182 19.1862 27.727 19.1862Z" fill="#37414F"/>
</svg>

<svg xmlns="http://www.w3.org/2000/svg" width="32" height="32" fill="none"><path fill="#37414F" d="M11.333 13.122c-.128-1.562-.241-2.756-2.287-2.756H7.91v8.4h2.145v.61l-3.083-.028-3.082.029v-.611h2.144v-8.4h-1.15c-2.046 0-2.159 1.208-2.287 2.756H2l.284-3.367h9.362l.284 3.367h-.6.003Z"/><path fill="#37414F" d="M19.289 22.53H10.41v-.61h1.506v-8.453H10.41v-.611h8.637l.412 3.367h-.6c-.213-1.833-.682-2.756-2.855-2.756h-2.213V17.2h.838c1.364 0 1.505-.6 1.505-1.662h.6v3.935h-.6c0-1.08-.142-1.662-1.505-1.662h-.838v4.106h2.216c2.472 0 3-1.108 3.3-3.225h.6l-.618 3.838Z"/><path fill="#37414F" d="M27.727 19.186c-.54 0-1.96 0-2.415.03V18.6h1.179l-2.557-3.552-2.529 3.381c.42.126.857.184 1.295.171v.611c-.355-.029-1.576-.029-2.017-.029-.4 0-1.548 0-1.875.03V18.6h.383c.275.001.55-.013.824-.043.5-.043.54-.085.667-.256l2.854-3.8-3.153-4.419H19V9.47c.384.028 1.79.028 2.273.028.582 0 1.918 0 2.429-.028v.611h-1.174l2.117 2.955 2.074-2.784a4.1 4.1 0 0 0-1.293-.17V9.47c.356.028 1.591.028 2.032.028.4 0 1.534 0 1.861-.028v.611h-.369c-.28-.008-.56.007-.838.043-.469.043-.526.071-.667.256l-2.4 3.21 3.591 5.01H30v.611c-.355-.025-1.818-.025-2.273-.025Z"/></svg>
